packages/components/bolt-icons/src/svgs/product/services/support.svg

<svg id="ecf01ace-977b-4b5d-82fe-f43ce8c20611" data-name="Layer 1" xmlns="http://www.w3.org/2000/svg" viewBox="0 0 32 32"><title>support</title><path id="ea3dd079-983d-445b-8962-a018301aca71" data-name="path-1" d="M23.7,18a6.82,6.82,0,0,0,0-4h6.1a13.55,13.55,0,0,1,.2,2,13.55,13.55,0,0,1-.2,2ZM20,29.4V22.9A8.06,8.06,0,0,0,22.9,20h6.5A13.87,13.87,0,0,1,20,29.4Zm-2,.4a13.55,13.55,0,0,1-2,.2,13.55,13.55,0,0,1-2-.2V23.7a6.82,6.82,0,0,0,4,0Zm-6-.4A13.87,13.87,0,0,1,2.6,20H9.1A8.06,8.06,0,0,0,12,22.9ZM2,16a13.55,13.55,0,0,1,.2-2H8.3a6.82,6.82,0,0,0,0,4H2.2A13.55,13.55,0,0,1,2,16ZM12,2.6V9.1A8.06,8.06,0,0,0,9.1,12H2.6A13.87,13.87,0,0,1,12,2.6Zm2-.4A13.55,13.55,0,0,1,16,2a13.55,13.55,0,0,1,2,.2V8.3a6.82,6.82,0,0,0-4,0ZM22,16a6,6,0,1,1-6-6A6,6,0,0,1,22,16ZM20,2.6A13.87,13.87,0,0,1,29.4,12H22.9A8.06,8.06,0,0,0,20,9.1ZM16,0A16,16,0,1,0,32,16,16,16,0,0,0,16,0Z" fill="#1f2555" fill-rule="evenodd"/></svg>

<?xml version="1.0" encoding="utf-8"?>
<!-- Generator: Adobe Illustrator 24.0.3, SVG Export Plug-In . SVG Version: 6.00 Build 0)  -->
<svg version="1.1" id="ecf01ace-977b-4b5d-82fe-f43ce8c20611"
	 xmlns="http://www.w3.org/2000/svg" xmlns:xlink="http://www.w3.org/1999/xlink" x="0px" y="0px" viewBox="0 0 32 32"
	 enable-background="new 0 0 32 32" xml:space="preserve">
<path id="ea3dd079-983d-445b-8962-a018301aca71" fill-rule="evenodd" clip-rule="evenodd" d="M23.7,18c0.4-1.3,0.4-2.7,0-4h6.1
	c0.1,0.7,0.2,1.3,0.2,2c0,0.7-0.1,1.3-0.2,2H23.7z M20,29.4v-6.5c1.2-0.7,2.2-1.7,2.9-2.9h6.5C28.1,24.5,24.5,28.1,20,29.4z
	 M18,29.8c-0.7,0.1-1.3,0.2-2,0.2c-0.7,0-1.3-0.1-2-0.2v-6.1c1.3,0.4,2.7,0.4,4,0V29.8z M12,29.4c-4.5-1.3-8.1-4.9-9.4-9.4h6.5
	c0.7,1.2,1.7,2.2,2.9,2.9V29.4z M2,16c0-0.7,0.1-1.3,0.2-2h6.1c-0.4,1.3-0.4,2.7,0,4H2.2C2.1,17.3,2,16.7,2,16z M12,2.6v6.5
	c-1.2,0.7-2.2,1.7-2.9,2.9H2.6C3.9,7.5,7.5,3.9,12,2.6z M14,2.2C14.7,2.1,15.3,2,16,2c0.7,0,1.3,0.1,2,0.2v6.1c-1.3-0.4-2.7-0.4-4,0
	V2.2z M22,16c0,3.3-2.7,6-6,6s-6-2.7-6-6s2.7-6,6-6S22,12.7,22,16z M20,2.6c4.5,1.3,8.1,4.9,9.4,9.4h-6.5c-0.7-1.2-1.7-2.2-2.9-2.9
	V2.6z M16,0C7.2,0,0,7.2,0,16s7.2,16,16,16s16-7.2,16-16S24.8,0,16,0z"/>
</svg>
